static/logos/bubble-wordmark-color.svg

<svg width="100" height="23" viewBox="0 0 100 23" fill="none" xmlns="http://www.w3.org/2000/svg">
<g clip-path="url(#clip0_1_3345)">
<path d="M48.7568 5.90626C46.7297 5.90626 44.7251 6.77582 43.2006 8.49237V0.045166H40.1797V14.2688C40.1797 18.8876 43.9233 22.6313 48.5422 22.6313C53.1611 22.6313 56.9047 18.8876 56.9047 14.2688C56.9047 9.64991 53.3756 5.90626 48.7568 5.90626ZM48.5365 19.4071C45.6963 19.4071 43.3982 17.1033 43.3982 14.2688C43.3982 11.4342 45.702 9.13043 48.5365 9.13043C51.3768 9.13043 53.6749 11.4342 53.6749 14.2688C53.6749 17.1033 51.3768 19.4071 48.5365 19.4071Z" fill="black"/>
<path d="M67.4911 5.90626C65.464 5.90626 63.4595 6.77582 61.935 8.49237V0.045166H58.9141V14.2688C58.9141 18.8876 62.6577 22.6313 67.2766 22.6313C71.8954 22.6313 75.6391 18.8876 75.6391 14.2688C75.6391 9.64991 72.1043 5.90626 67.4911 5.90626ZM67.2709 19.4071C64.4307 19.4071 62.1326 17.1033 62.1326 14.2688C62.1326 11.4342 64.4364 9.13043 67.2709 9.13043C70.1111 9.13043 72.4093 11.4342 72.4093 14.2688C72.4093 17.1033 70.1111 19.4071 67.2709 19.4071Z" fill="black"/>
<path d="M23.1719 15.7313V6.35803H26.413V15.703C26.413 18.0915 27.7964 19.6217 30.1284 19.6217C32.4886 19.6217 33.8438 18.148 33.8438 15.703V6.35803H37.1132V15.7313C37.1132 20.0622 34.4875 22.6257 30.1284 22.6257C25.8822 22.6313 23.1719 19.9775 23.1719 15.7313Z" fill="black"/>
<path d="M81.4755 22.2473H78.2344V0.045166H81.4755V22.2473Z" fill="black"/>
<path d="M99.8276 15.5562H87.4222C87.8965 18.0293 89.63 19.712 92.696 19.712C94.4916 19.712 96.6768 19.0344 98.0885 18.0011L99.4436 20.3896C97.8231 21.5979 95.2596 22.5974 92.5775 22.5974C86.626 22.5974 84.0625 18.4415 84.0625 14.2575C84.0625 11.869 84.7965 9.89834 86.3042 8.33425C87.8061 6.77016 89.7824 5.974 92.1709 5.974C94.4408 5.974 96.3268 6.67981 97.7723 8.12533C99.2178 9.57084 99.9518 11.5132 99.9518 13.9921C99.9405 14.4381 99.9123 14.9689 99.8276 15.5562ZM87.4165 12.9023H96.6712C96.4058 10.3952 94.5481 8.77468 92.1596 8.77468C89.7147 8.77468 87.8908 10.4291 87.4165 12.9023Z" fill="black"/>
<path d="M12.8796 5.90626C10.8525 5.90626 8.84798 6.77582 7.32341 8.49237V0.045166H4.29688V14.2688C4.29688 18.8876 8.04052 22.6313 12.6594 22.6313C17.2782 22.6313 21.0219 18.8876 21.0219 14.2688C21.0219 9.64991 17.4928 5.90626 12.8796 5.90626ZM12.6594 19.4071C9.81918 19.4071 7.52104 17.1033 7.52104 14.2688C7.52104 11.4342 9.82483 9.13043 12.6594 9.13043C15.4996 9.13043 17.7977 11.4342 17.7977 14.2688C17.7977 17.1033 15.4996 19.4071 12.6594 19.4071Z" fill="black"/>
<path d="M2.09788 22.6257C3.23925 22.6257 4.16451 21.7005 4.16451 20.5591C4.16451 19.4177 3.23925 18.4924 2.09788 18.4924C0.956514 18.4924 0.03125 19.4177 0.03125 20.5591C0.03125 21.7005 0.956514 22.6257 2.09788 22.6257Z" fill="#0000FF"/>
</g>
<defs>
<clipPath id="clip0_1_3345">
<rect width="100" height="22.6426" fill="white"/>
</clipPath>
</defs>
</svg>

<svg xmlns="http://www.w3.org/2000/svg" width="278.261" height="64" fill="none" viewBox="0 0 100 23"><g clip-path="url(#a)"><path fill="#000" d="M48.757 5.906c-2.027 0-4.032.87-5.556 2.586V.045H40.18V14.27a8.362 8.362 0 0 0 8.362 8.362 8.362 8.362 0 0 0 8.363-8.362c0-4.62-3.53-8.363-8.148-8.363Zm-.22 13.501a5.139 5.139 0 1 1 0-10.278 5.139 5.139 0 0 1 0 10.278ZM67.491 5.906c-2.027 0-4.032.87-5.556 2.586V.045h-3.02V14.27a8.362 8.362 0 0 0 8.362 8.362 8.362 8.362 0 0 0 8.362-8.362c0-4.62-3.535-8.363-8.148-8.363Zm-.22 13.501a5.139 5.139 0 1 1 .001-10.278 5.139 5.139 0 0 1-.001 10.278ZM23.172 15.731V6.358h3.241v9.345c0 2.389 1.383 3.919 3.715 3.919 2.36 0 3.716-1.474 3.716-3.919V6.358h3.27v9.373c0 4.331-2.627 6.895-6.986 6.895-4.246.005-6.956-2.649-6.956-6.895ZM81.475 22.247h-3.24V.045h3.24v22.202ZM99.828 15.556H87.422c.475 2.473 2.208 4.156 5.274 4.156 1.796 0 3.98-.678 5.392-1.71l1.356 2.388c-1.62 1.208-4.184 2.207-6.867 2.207-5.951 0-8.514-4.155-8.514-8.34 0-2.388.733-4.359 2.241-5.923 1.502-1.564 3.478-2.36 5.867-2.36 2.27 0 4.156.706 5.601 2.151 1.446 1.446 2.18 3.388 2.18 5.867-.011.446-.04.977-.124 1.564Zm-12.412-2.654h9.255c-.265-2.507-2.123-4.127-4.511-4.127-2.445 0-4.27 1.654-4.743 4.127ZM12.88 5.906c-2.028 0-4.032.87-5.557 2.586V.045H4.297V14.27a8.362 8.362 0 0 0 8.362 8.362 8.362 8.362 0 0 0 8.363-8.362c0-4.62-3.53-8.363-8.142-8.363Zm-.22 13.501a5.139 5.139 0 1 1 0-10.278 5.139 5.139 0 0 1 0 10.278Z"/><path fill="#00F" d="M2.098 22.626a2.067 2.067 0 1 0 0-4.133 2.067 2.067 0 0 0 0 4.133Z"/></g><defs><clipPath id="a"><path fill="#fff" d="M0 0h100v22.643H0z"/></clipPath></defs></svg>
